X: 13078
T: Fiollaigean
R: slip jig
M: 9/8
K: Ddorian
AAA ADD F2G|AAA ddd dcA|ccc dcA G2c|AGE G2c AGE||
DDD F2c AGE|DDD F2c AGE|DDD F2G A2c|dAA A2G FDD||D3||

